X:1
T:Reel des Menteries
C:trad. via Richard Forest
M:4/4
K:D
A,DDA, D2 ED | CDEF GECE | A,DDA, D2 ED | CDEF GECE | \
A,DDA, D2 ED | CDEF GECE | A,DFA  dAFA  | EDCE D4 :: \
AddA   dfed  | cABc BAFA |  dcBA   FAD2 | CDEF GABc | \
dAFA   dfed  | cABc BAFA | dcBA   FADF | EDCE D4 :|
% alt measures 3-4 of B part:  dcBA FADF | EDCD EABc
